icons/src/scalable/default/devices/multimedia-player-symbolic.svg

<svg xmlns="http://www.w3.org/2000/svg" viewBox="0 0 16 16">
  <defs id="defs3051">
    <style type="text/css" id="current-color-scheme">
      .ColorScheme-Text {
        color:#4d4d4d;
      }
      </style>
  </defs>
 <path 
     style="fill:#bebebe;fill-opacity:1;stroke:none" 
     class="ColorScheme-Text"
     d="M 4 0.00390625 C 2 0.00390625 2 2.0039062 2 2.0039062 L 2 14.003906 C 2 14.003906 2 16.003906 4 16.003906 L 12 16.003906 C 12 16.003906 14 16.253906 14 14.003906 L 14 2.0039062 C 14 0.00390625 12 0.00390625 12 0.00390625 L 4 0.00390625 z M 4 2.0039062 L 12 2.0039062 L 12 10.003906 L 4 10.003906 L 4 2.0039062 z M 8 11.753906 C 8.69036 11.753906 9.25 12.313546 9.25 13.003906 C 9.25 13.694266 8.69036 14.253906 8 14.253906 C 7.30964 14.253906 6.75 13.694266 6.75 13.003906 C 6.75 12.313546 7.30964 11.753906 8 11.753906 z "
     />
</svg>

<svg version="1.1" viewBox="0 0 16 16" xmlns="http://www.w3.org/2000/svg">
 <path d="m4 0.0039062c-2 0-2 2-2 2v12s0 2 2 2h8s2 0.25 2-2v-12c0-2-2-2-2-2h-8zm0 2h8v8h-8v-8zm4 9.75c0.69036 0 1.25 0.55964 1.25 1.25s-0.55964 1.25-1.25 1.25-1.25-0.55964-1.25-1.25 0.55964-1.25 1.25-1.25z" fill="#bebebe"/>
</svg>
